img/icons/svg/icon__phone.svg

<svg width="22" height="22" fill="none" xmlns="http://www.w3.org/2000/svg">
  <g clip-path="url(#clip0)">
    <path d="M21.4011 16.1458L18.3309 13.0756C17.2344 11.9791 15.3704 12.4178 14.9318 13.8432C14.6028 14.83 13.5064 15.3783 12.5195 15.1589C10.3265 14.6107 7.36603 11.7598 6.81778 9.45721C6.48884 8.47033 7.14673 7.37384 8.13357 7.04493C9.559 6.60634 9.9976 4.74231 8.90111 3.64582L5.83094 0.575656C4.95375 -0.191885 3.63797 -0.191885 2.87043 0.575656L0.787099 2.65898C-1.29623 4.85196 1.0064 10.6633 6.15989 15.8168C11.3134 20.9703 17.1248 23.3826 19.3177 21.1896L21.4011 19.1063C22.1687 18.2291 22.1687 16.9133 21.4011 16.1458Z" fill="#304BAB"/>
  </g>
  <defs>
    <clipPath id="clip0">
      <path fill="#fff" d="M0 0H22V22H0z"/>
    </clipPath>
  </defs>
</svg>

<svg width="22" height="22" fill="none" xmlns="http://www.w3.org/2000/svg"><g clip-path="url(#clip0)"><path d="M21.401 16.146l-3.07-3.07c-1.097-1.097-2.96-.658-3.4.767-.328.987-1.425 1.535-2.411 1.316-2.194-.548-5.154-3.4-5.702-5.702-.33-.987.329-2.083 1.316-2.412 1.425-.439 1.864-2.303.767-3.4L5.831.576c-.877-.767-2.193-.767-2.96 0L.786 2.66c-2.083 2.193.22 8.004 5.373 13.158 5.153 5.153 10.965 7.566 13.158 5.373l2.083-2.084c.768-.877.768-2.193 0-2.96z" fill="#304BAB"/></g><defs><clipPath id="clip0"><path fill="#fff" d="M0 0h22v22H0z"/></clipPath></defs></svg>
